!!!COM: Bach, Johann Sebastian
!!!CDT: 1685/3//-1750/7/28/
!!!OTL@@DE: Liebster Jesu, wir sind hier
!!!AGN: 4-Part Chorale
!!!SCT: BH 328
!!!SCT: BWV 373
**harm	**root	**kern	**kern	**kern	**kern
!	!	!bass	!tenor	!alto	!soprno
*	*Iorgan	*Iorgan	*Iorgan	*Iorgan	*Iorgan
*M4/4	*M4/4	*M4/4	*M4/4	*M4/4	*M4/4
*met(c)	*met(c)	*met(c)	*met(c)	*met(c)	*met(c)
*MM60	*MM60	*MM60	*MM60	*MM60	*MM60
*k[f#c#g#d#]	*k[f#c#g#d#]	*k[f#c#g#d#]	*k[f#c#g#d#]	*k[f#c#g#d#]	*k[f#c#g#d#]
*E:	*E:	*E:	*E:	*E:	*E:
*>[A,A,B]	*>[A,A,B]	*>[A,A,B]	*>[A,A,B]	*>[A,A,B]	*>[A,A,B]
*>A	*>A	*>A	*>A	*>A	*>A
=1-	=1-	=1-	=1-	=1-	=1-
I	4GG	4EE	8E	4B	4g#
.	.	.	8F#	.	.
I	4GG	[4E	4G#	4B	8f#
.	.	.	.	.	8e
Vb	4DD	8E]	4F#	4B	4f#
.	.	8D#	.	.	.
V	4DD	8C#	4F#	4d#	4b
.	.	8BB	.	.	.
=2	=2	=2	=2	=2	=2
I	4GG	8E	8G#	4B	4g#
.	.	8F#	8A	.	.
Ib	4GG	8G#	4B	8B	4e
.	.	8E	.	8c#	.
V;	2DD;	2BB;	2B;	2d#;	2f#;
=3	=3	=3	=3	=3	=3
vi	4EE	8CC#	4G#	4c#	4e
.	.	4C#	.	.	.
V7c/IV	4GG	.	4G#	4d	4e
.	.	8BB	.	.	.
IV	4CC	8AAA	4A	4c#	4e
.	.	4AA	.	.	.
Ib	4GG	.	4E	4B	4e
.	.	8GG#	.	.	.
=4	=4	=4	=4	=4	=4
ii	4AA	4FF#	4A	8c#	4f#
.	.	.	.	8d#y	.
I	4GG	8EE	4B	4e	4g#
.	.	8GG#	.	.	.
ii7b	4AA	8AA	8c#	4e	2f#
.	.	8FF#	8A	.	.
V	4DD	4BB	8F#	4d#	.
.	.	.	16B	.	.
.	.	.	16A	.	.
=5	=5	=5	=5	=5	=5
I;	1GG;	1EE;	1G#;	1B;	1e;
*>B	*>B	*>B	*>B	*>B	*>B
!!linebreak: 2
=6:|!	=6:|!	=6:|!	=6:|!	=6:|!	=6:|!
I	4GG	8EE	4E	4G#	4B
.	.	4E	.	.	.
Vb	4DD	.	4F#	4F#	4B
.	.	8D#	.	.	.
viiob/V	4CC#	4C#	4E	8G#	4c#
.	.	.	.	8A#	.
V	4DD	[4BB	4F#	4B	4d#
=7	=7	=7	=7	=7	=7
vi7d	4EE	4BB]	4G#	4c#	4e
Vb/V	4AA	4AA#	4F#	4c#	8f#
.	.	.	.	.	8e
V	4DD	4BB	8F#	4B	8d#
.	.	.	8E	.	8c#
V;	4DD;	4BB;	4D#;	4F#;	4B;
=8	=8	=8	=8	=8	=8
Ib	4GG	8GG#	4.E	8B	4e
.	.	8EE	.	8G#	.
ii7	8AA	8FF#	.	8A	4e
V7b/IV	8GG	8GG#	8D	8B	.
IV	4CC	8AA	8C#	4c#	4e
.	.	8BB	8D#	.	.
IV	4CC	8AA	8E	4c#	4e
.	.	8GG#	16F#	.	.
.	.	.	16G#	.	.
=9	=9	=9	=9	=9	=9
ii	4AA	4FF#	4A	8c#	4f#
.	.	.	.	8d#	.
I	4GG	4EE	4B	[4e	4g#
V	2DD	2BB	4.B	8e]	2f#
.	.	.	.	8c#	.
.	.	.	.	4d#	.
.	.	.	8A	.	.
=10	=10	=10	=10	=10	=10
I;	1GG;	1EE;	1G#;	1B;	1e;
==	==	==	==	==	==
*-	*-	*-	*-	*-	*-
!!chor2scor: -l 2 -s 0.6 -o %b.pmx
!!!YEC: Copyright 1994, David Huron
!!!YEC: Changes/Additions 2001 by Craig Stuart Sapp
!!!YEN: United States of America
!!!SMA: 371 Bach Chorales, edited by Ludwig Erk, C.F. Peters
!!!PDT: 1850, 1865
!!!ONB: Harmony and Root analysis done manually
